assets/icons/bulb.svg

<svg xmlns="http://www.w3.org/2000/svg" viewBox="0 0 24 24" role="presentation" aria-hidden="true"><g clip-path="url(#clip0_33239_17064)"><path d="M14.4 18V18.6C14.5591 18.6 14.7117 18.5368 14.8243 18.4243C14.9368 18.3117 15 18.1591 15 18H14.4ZM9.6 18H9C9 18.1591 9.06321 18.3117 9.17574 18.4243C9.28826 18.5368 9.44087 18.6 9.6 18.6V18ZM10.2 20.4C10.2 20.7314 10.4686 21 10.8 21H13.2C13.5314 21 13.8 20.7314 13.8 20.4C13.8 20.0686 13.5314 19.8 13.2 19.8H10.8C10.4686 19.8 10.2 20.0686 10.2 20.4ZM7.296 10.68L7.284 10.764L8.472 10.932L8.4852 10.848L7.296 10.68ZM12 6.6C10.8561 6.59981 9.75052 7.01236 8.88637 7.76188C8.02222 8.5114 7.45752 9.54755 7.296 10.68L8.4852 10.848C8.60624 10.0018 9.02726 9.22771 9.67315 8.6678C10.319 8.10789 11.1452 7.79976 12 7.8V6.6ZM16.704 10.68C16.5425 9.54755 15.9778 8.5114 15.1136 7.76188C14.2495 7.01236 13.1439 6.59981 12 6.6V7.8C12.8547 7.80001 13.6808 8.10823 14.3266 8.66809C14.9724 9.22796 15.3947 10.0019 15.516 10.848L16.704 10.68ZM16.716 10.764L16.704 10.68L15.516 10.848L15.5268 10.932L16.716 10.764ZM15.768 14.3508C16.524 13.374 16.9056 12.102 16.716 10.764L15.528 10.9332C15.5967 11.4051 15.5694 11.886 15.4478 12.347C15.3261 12.8081 15.1126 13.2399 14.82 13.6164L15.768 14.3508ZM13.8 16.08V18H15V16.0812L13.8 16.08ZM14.4 17.4H9.6V18.6H14.4V17.4ZM10.2 18V16.0812H9V18H10.2ZM7.284 10.764C7.19278 11.3949 7.22972 12.0377 7.3926 12.654C7.55549 13.2703 7.84098 13.8474 8.232 14.3508L9.1812 13.6164C8.88861 13.2399 8.67388 12.8081 8.55222 12.347C8.43056 11.886 8.40328 11.4039 8.472 10.932L7.284 10.764ZM10.2 16.08C10.2 15.0924 9.6744 14.2524 9.18 13.6152L8.232 14.3508C8.6916 14.9448 9 15.5112 9 16.08H10.2ZM14.82 13.6152C14.3244 14.2536 13.8 15.0924 13.8 16.08H15C15 15.5112 15.3084 14.9448 15.768 14.3508L14.82 13.6152ZM12 3C11.6686 3 11.4 3.26863 11.4 3.6V4.8C11.4 5.13137 11.6686 5.4 12 5.4C12.3314 5.4 12.6 5.13137 12.6 4.8V3.6C12.6 3.26863 12.3314 3 12 3ZM3 12C3 12.3314 3.26863 12.6 3.6 12.6H4.8C5.13137 12.6 5.4 12.3314 5.4 12C5.4 11.6686 5.13137 11.4 4.8 11.4H3.6C3.26863 11.4 3 11.6686 3 12ZM18.6 12C18.6 12.3314 18.8686 12.6 19.2 12.6H20.4C20.7314 12.6 21 12.3314 21 12C21 11.6686 20.7314 11.4 20.4 11.4H19.2C18.8686 11.4 18.6 11.6686 18.6 12ZM6.6 7.8C6.83461 7.56539 6.83461 7.18501 6.6 6.9504L5.6496 6C5.41499 5.76539 5.03461 5.76539 4.8 6C4.56539 6.23461 4.56539 6.61499 4.8 6.8496L5.7504 7.8C5.98501 8.03461 6.36539 8.03461 6.6 7.8ZM17.4 7.8C17.6346 8.03461 18.015 8.03461 18.2496 7.8L19.2 6.8496C19.4346 6.61499 19.4346 6.23461 19.2 6C18.9654 5.76539 18.585 5.76539 18.3504 6L17.4 6.9504C17.1654 7.18501 17.1654 7.56539 17.4 7.8Z" fill="currentColor"/></g><defs><clipPath id="clip0_33239_17064"><rect width="18" height="18" fill="white" transform="translate(3 3)"/></clipPath></defs></svg>

<svg xmlns="http://www.w3.org/2000/svg" aria-hidden="true" viewBox="0 0 24 24"><g clip-path="url(#a)"><path fill="currentColor" d="M14.4 18v.6a.6.6 0 0 0 .6-.6zm-4.8 0H9a.6.6 0 0 0 .6.6zm.6 2.4a.6.6 0 0 0 .6.6h2.4a.6.6 0 1 0 0-1.2h-2.4a.6.6 0 0 0-.6.6m-2.904-9.72-.012.084 1.188.168.013-.084zM12 6.6a4.75 4.75 0 0 0-4.704 4.08l1.19.168A3.55 3.55 0 0 1 12 7.8zm4.704 4.08A4.75 4.75 0 0 0 12 6.6v1.2a3.55 3.55 0 0 1 3.516 3.048zm.012.084-.012-.084-1.188.168.01.084zm-.948 3.587a4.75 4.75 0 0 0 .948-3.587l-1.188.17a3.54 3.54 0 0 1-.708 2.682zM13.8 16.08V18H15v-1.919zm.6 1.32H9.6v1.2h4.8zm-4.2.6v-1.919H9V18zm-2.916-7.236a4.74 4.74 0 0 0 .948 3.587l.95-.735a3.54 3.54 0 0 1-.71-2.684zM10.2 16.08c0-.988-.526-1.828-1.02-2.465l-.948.736c.46.594.768 1.16.768 1.729zm4.62-2.465c-.496.639-1.02 1.477-1.02 2.465H15c0-.569.308-1.135.768-1.73zM12 3a.6.6 0 0 0-.6.6v1.2a.6.6 0 1 0 1.2 0V3.6A.6.6 0 0 0 12 3m-9 9a.6.6 0 0 0 .6.6h1.2a.6.6 0 1 0 0-1.2H3.6a.6.6 0 0 0-.6.6m15.6 0a.6.6 0 0 0 .6.6h1.2a.6.6 0 1 0 0-1.2h-1.2a.6.6 0 0 0-.6.6m-12-4.2a.6.6 0 0 0 0-.85L5.65 6a.6.6 0 0 0-.85.85l.95.95a.6.6 0 0 0 .85 0m10.8 0a.6.6 0 0 0 .85 0l.95-.95a.6.6 0 0 0-.85-.85l-.95.95a.6.6 0 0 0 0 .85"/></g><defs><clipPath id="a"><path fill="#fff" d="M3 3h18v18H3z"/></clipPath></defs></svg>
